X: 34
T: To Avert from Men God's Wrath
M: 4/4 % time signature
L: 1/4 % default length
%%staves (S1V1 S1V2) | (S2V1 S2V2) 
V: S1V1 clef=treble 
%%MIDI beat 127 125 110 1
V: S1V2 
%%MIDI beat 127 125 110 1
V: S2V1 clef=bass 
%%MIDI beat 127 125 110 1
V: S2V2 
%%MIDI beat 127 125 110 1
K: Eb % key signature
%
%%MIDI program 1 0 % Piano 1
%%MIDI program 2 0 % Piano 1
%%MIDI program 3 0 % Piano 1
%%MIDI program 4 0 % Piano 1
%
% 1
[V: S1V1] [Q:1/4=90] E E F G | A3/2 A/ G2 | E E F G | F F E2 |
w: 1.~To a- vert from men God's wrath Je- sus suf- fered in our stead;
w: 2.~That we nev- er should for- get This great Love on us be- stowed,
w: 3.~Hi- ther each af- flict- ed soul May re- pair, though filled with grief;
w: 4.~He who in self\- right- eous- ness Fix- es a- ny hope or stay,
w: 5.~But ex- am- ine first your case, Whe- ther you be in the faith;
[V: S1V2] B, B, D E | E3/2 E/ E2 | B, C D E | E D E2 |
[V: S2V1] G, G, B, B, | C3/2 C/ B,2 | G, G, B, B, | C B, G,2 |
[V: S2V2] E, E, B,, E, | A,,3/2 A,,/ E,2 | E, C, B,, E, | A,, B,, E,2 |
% 5
[V: S1V1] E G B B | c c B2 | E G B B | c c B2 |
w: By an ig- no- min- ious death he a full a- tone- ment made;
w: He gave us his flesh to eat, and to drink his pre- cious blood;
w: To the sick, not to the whole, the Phy- si- cian brings re- lief;
w: Has not on a wed- ding dress, And with shame is sent a- way;
w: Do you long for par- d'ning grace?  Is your on- ly hope his death?
[V: S1V2] E E F G | E F G2 | E E F D | G F/E/ D2 |
[V: S2V1] G, C D E | C D E2 | B, B, B, B, | B, =A, B,2 |
[V: S2V2] E, C, B,, E, | A, A, E,2 | G, E, D, G, | E, F, B,,2 |
% 9
[V: S1V1] E E F G | A3/2 A/ G2 | !sintro!E F G F | E D E2 !eintro!|]
w: And by his most pre- cious blood, Brought us, sin- ners, nigh to God.
w: All who sick and need- y are May re- ceive in him a share.
w: Fear not, there- fore, but draw nigh, Christ will all your wants sup- ply.
w: To the hun- gry, wear- y heart, He will food and rest im- part.
w: Then, how- e'er your soul's op- pressed, Come, you are a wor- thy guest.
[V: S1V2] E E D E | E3/2 E/ E2 | E D E C | B, B, B,2 |]
[V: S2V1] B, B, A, B, | C3/2 C/ B,2 | B, A, B, A, | G, F, G,2 |]
[V: S2V2] G, G, F, E, | A,,3/2 A,,/ E,2 | G, F, E, A,, | B,, B,, E,2 |]
W: 6. He who Jesus' mercy knows, Is from wrath and envy freed;
W: Love unto our neighbor shows That we are his flock indeed;
W: Thus we may in all our ways Show forth our Redeemer's praise.

